assets/images/window.svg

<svg width="182" height="137" fill="none" xmlns="http://www.w3.org/2000/svg"><path d="M174.563 121.688l.681-2.701c1.208-.515 2.443-.96 3.701-1.335l.086 1.255.349-1.383c1.559-.447 2.62-.645 2.62-.645s-1.433 5.48-4.439 9.669l-3.502.618 2.721.395c-.379.457-.785.89-1.217 1.297-4.373 4.081-9.243 5.953-10.878 4.182-1.635-1.772.584-6.516 4.956-10.597 1.356-1.265 3.059-2.28 4.763-3.079l.159 2.324z" fill="#E6E6E6"/><path d="M168.086 118.755l-.805-2.666c.769-1.068 1.597-2.092 2.481-3.066l.719 1.029-.412-1.365c1.105-1.193 1.911-1.914 1.911-1.914s1.591 5.436 1.171 10.584l-2.68 2.35 2.532-1.077c-.089.589-.214 1.171-.375 1.743-1.646 5.766-4.852 9.9-7.162 9.234-2.311-.667-2.85-5.881-1.205-11.647.51-1.788 1.446-3.542 2.494-5.112l1.331 1.907z" fill="#E6E6E6"/><path d="M181.59 133.415H75.8333v.412H181.59v-.412z" fill="#3F3D56"/><path d="M4.96361 53.8638c-1.43146-2.1365-2.04681-5.931.61535-7.801 1.3203-.9275 2.92307-.8143 4.31064-.4062 1.9193.5645 3.6261 1.7153 5.1025 3.0028 1.7028 1.4851 3.1608 3.2261 4.5984 4.9678 1.4192 1.7195 2.8575 3.4189 4.3662 5.0579 2.9734 3.2286 6.1481 6.2637 9.5048 9.0869 3.2897 2.7701 6.7493 5.3296 10.3583 7.6632 1.7918 1.1576 3.6219 2.2562 5.4903 3.2959a48.8808 48.8808 0 005.3724 2.6782c2.4521.9914 6.6538 2.377 8.8283-.4043 1.153-1.4747 1.2107-3.4758.9503-5.1566-.3148-2.0323-1.1085-3.9288-1.8905-5.7812-3.6375-8.6167-7.3175-17.2127-10.9764-25.8188-.854-2.0086-1.7334-4.0095-2.4428-6.0854-.6642-1.9435-1.217-3.9927-1.2301-6.1094-.0114-1.8489.3881-3.9353 1.7868-5.3594 1.1601-1.181 2.7854-1.5719 4.3159-1.563 3.7892.0222 7.3495 1.9616 10.2925 4.0056 3.6564 2.5395 6.8858 5.6244 10.5281 8.1831 2.941 2.0659 6.3996 3.9381 10.1529 4.1751 1.439.0908 2.9662-.1021 4.2772-.8927 1.2532-.791 2.166-2.0257 2.558-3.4603.4914-1.6629.4301-3.4194.1694-5.0585-.3258-1.9193-.9169-3.7834-1.7561-5.5382-1.7745-3.8126-4.1993-7.2292-6.2874-10.8478-1.0241-1.7746-2.0242-3.6035-2.6624-5.5829-.5407-1.67688-.9806-3.66165-.4464-5.47979 1.1022-3.75124 5.5834-2.33969 7.8555-1.25684a36.32393 36.32393 0 014.4405 2.60021c.3053.20285.6022-.33526.2983-.53715a34.88182 34.88182 0 00-4.68-2.71248c-1.385-.63729-2.9099-1.1932-4.4989-1.16265-1.3345.02566-2.6796.58774-3.4629 1.78827-.9267 1.42043-.8629 3.25686-.6134 4.78078.3298 2.01525 1.1173 3.87685 2.0253 5.64815.9563 1.8656 2.0474 3.6493 3.145 5.425 2.1934 3.5484 4.5964 7.1381 5.6903 11.2807.7652 2.8978 1.2487 7.4239-1.8661 9.492-1.3826.918-3.0769 1.0508-4.6068.8779-1.849-.209-3.6102-.8269-5.2549-1.6031-7.6696-3.6194-12.7788-11.1346-20.9553-13.9139-2.7801-.9449-6.6705-1.5483-9.1169 1.007-1.2709 1.3275-1.7807 3.1704-1.8951 4.9022-.1372 2.0741.2934 4.1153.8787 6.0362a59.88907 59.88907 0 002.2623 5.9222c.9166 2.1596 1.8345 4.3185 2.7535 6.4768l5.5714 13.1043 2.7682 6.5109c.8448 1.9872 1.7504 3.984 2.1907 6.1383.3606 1.7639.4629 4.191-1.0823 5.61-1.2271 1.1269-3.0201 1.0747-4.4566.813-1.8601-.3388-3.6101-1.0795-5.2756-1.8966-1.9211-.9424-3.7912-1.9879-5.6273-3.0753a99.54092 99.54092 0 01-10.8593-7.4556 103.67681 103.67681 0 01-9.847-8.8301A102.2139 102.2139 0 0122.1 55.6742c-1.5022-1.747-2.9129-3.5766-4.4687-5.2753-1.4073-1.5365-2.948-2.9608-4.7391-4.0444-1.4955-.9049-3.26344-1.6615-5.10276-1.6019-.6488.0182-1.28652.1736-1.87169.4559s-1.10469.6853-1.5248 1.1828c-.82317 1.029-1.26797 2.3122-1.25928 3.6328.00948 1.4904.46689 2.9432 1.31221 4.1676.2045.3052.72313-.0214.51773-.3279zM28.4097 4.14984H3.85211V26.0739H28.4097V4.14984z" fill="#E6E6E6"/><path d="M28.4097 43.6131H3.85211v21.924H28.4097v-21.924zM107.317 4.14984H82.7598V26.0739h24.5572V4.14984z" fill="#90D633"/><path d="M107.317 43.6131H82.7598v21.924h24.5572v-21.924z" fill="#E6E6E6"/><path d="M68.1423 4.14984H43.5847V26.0739h24.5576V4.14984zM68.1423 43.6131H43.5847v21.924h24.5576v-21.924z" fill="#90D633"/><path d="M43.6554 8.24314c2.2638 0 4.0991-1.84529 4.0991-4.12157S45.9192 0 43.6554 0c-2.2639 0-4.0991 1.84529-4.0991 4.12157s1.8352 4.12157 4.0991 4.12157zM83.2117 8.24314c2.2639 0 4.0991-1.84529 4.0991-4.12157S85.4756 0 83.2117 0s-4.0991 1.84529-4.0991 4.12157 1.8352 4.12157 4.0991 4.12157zM4.0991 47.8102c2.26387 0 4.0991-1.8453 4.0991-4.1216 0-2.2762-1.83523-4.1215-4.0991-4.1215S0 41.4124 0 43.6886c0 2.2763 1.83523 4.1216 4.0991 4.1216zM43.6554 47.8102c2.2638 0 4.0991-1.8453 4.0991-4.1216 0-2.2762-1.8353-4.1215-4.0991-4.1215-2.2639 0-4.0991 1.8453-4.0991 4.1215 0 2.2763 1.8352 4.1216 4.0991 4.1216z" fill="#3F3D56"/><path d="M139.226 131.3s-5.729.444-5.141 2.511c.587 2.068 5.141 1.773 5.141 1.773s3.525-.296 5.435.295c1.91.591 4.113 0 4.26-1.034.147-1.034-1.028-1.772-1.028-1.772l-.735-1.477-7.932-.296z" fill="#2F2E41"/><path d="M124.169 85.1443l-.587 2.3632s-2.644 5.4649.587 5.4649c3.232 0 2.057-5.0218 2.057-5.0218l.294-2.3632-2.351-.4431zM152.52 83.2242l.587 2.3632s2.645 5.4649-.587 5.4649-2.057-5.0218-2.057-5.0218l-.293-2.3632 2.35-.4431zM137.243 43.0499c3.488 0 6.316-2.8434 6.316-6.351s-2.828-6.3511-6.316-6.3511c-3.489 0-6.316 2.8435-6.316 6.3511 0 3.5076 2.827 6.351 6.316 6.351z" fill="#9F616A"/><path d="M135.333 41.573s.735 3.397.294 5.0217c-.441 1.6247 9.107-.2954 9.107-.2954s-3.378-5.6125-3.231-5.7602l-6.17 1.0339z" fill="#9F616A"/><path d="M136.802 45.4131s-2.644-.7385-3.525.1477c-.882.8862-6.023 3.3971-6.023 3.3971l3.525 21.7118 15.277-3.397 2.645-20.5303s-4.166-2.456-4.874-1.9665c-.708.4895-7.025.6372-7.025.6372z" fill="#D0CDE1"/><path d="M128.429 49.1057l-.705-.3802s-2.673.5279-2.526 2.5956c.146 2.0678.734 13.5884.734 13.5884l-2.35 20.8256 4.26.7385 4.26-17.4285-3.673-19.9394zM148.26 47.1856l.705-.3802s2.674.5279 2.527 2.5956c-.147 2.0678-.735 13.5884-.735 13.5884l2.35 20.8256-4.259.7385-4.26-17.4285 3.672-19.9394z" fill="#D0CDE1"/><path d="M130.926 68.4543l-.587 9.0096-1.91 18.0194 2.791 37.3677 9.695.296-2.938-35.5959 2.938-12.2591 9.603-.3576s.68-14.1169-4.755-18.5479l-14.837 2.0678z" fill="#2F2E41"/><path d="M141.503 83.2241l-1.543 32.5679-.514 16.468 8.667.887 2.187-48.4323-3.362-3.4106-5.435 1.92zM140.034 28.28s-5.729-.7385-7.345 2.0678c0 0-.44 2.0678-1.909 2.8063-1.469.7385.293 3.2494.734 3.9879.441.7385 1.616 5.0218.294 6.0557s2.35 3.9879 2.35 3.9879 1.763 2.3631.294 4.1355c-1.469 1.7724 1.91 2.3632 1.91 2.3632s-.735 5.0218.587 3.6925c0 0 .588 11.3729 6.17 4.2833s7.932-10.4867 5.582-13.293c-2.351-2.8062-.588-5.3171-.588-5.3171s.735-1.477-.881-3.6925c-1.616-2.2155-1.616-11.0775-7.198-11.0775zM131.734 132.187s-5.729.443-5.141 2.511c.588 2.067 5.141 1.772 5.141 1.772s3.526-.295 5.435.295c1.91.591 4.113 0 4.26-1.034.147-1.033-1.028-1.772-1.028-1.772l-.734-1.477-7.933-.295z" fill="#2F2E41"/></svg>

<svg width="182" height="137" viewBox="0 0 182 137" fill="none" xmlns="http://www.w3.org/2000/svg">
<path d="M174.563 121.688L175.244 118.987C176.452 118.472 177.687 118.027 178.945 117.652L179.031 118.907L179.38 117.524C180.939 117.077 182 116.879 182 116.879C182 116.879 180.567 122.359 177.561 126.548L174.059 127.166L176.78 127.561C176.401 128.018 175.995 128.451 175.563 128.858C171.19 132.939 166.32 134.811 164.685 133.04C163.05 131.268 165.269 126.524 169.641 122.443C170.997 121.178 172.7 120.163 174.404 119.364L174.563 121.688Z" fill="#E6E6E6"/>
<path d="M168.086 118.755L167.281 116.089C168.05 115.021 168.878 113.997 169.762 113.023L170.481 114.052L170.069 112.687C171.174 111.494 171.98 110.773 171.98 110.773C171.98 110.773 173.571 116.209 173.151 121.357L170.471 123.707L173.003 122.63C172.914 123.219 172.789 123.801 172.628 124.373C170.982 130.139 167.776 134.273 165.466 133.607C163.155 132.94 162.616 127.726 164.261 121.96C164.771 120.172 165.707 118.418 166.755 116.848L168.086 118.755Z" fill="#E6E6E6"/>
<path d="M181.59 133.415H75.8333V133.827H181.59V133.415Z" fill="#3F3D56"/>
<path d="M4.96361 53.8638C3.53215 51.7273 2.9168 47.9328 5.57896 46.0628C6.89926 45.1353 8.50203 45.2485 9.8896 45.6566C11.8089 46.2211 13.5157 47.3719 14.9921 48.6594C16.6949 50.1445 18.1529 51.8855 19.5905 53.6272C21.0097 55.3467 22.448 57.0461 23.9567 58.6851C26.9301 61.9137 30.1048 64.9488 33.4615 67.772C36.7512 70.5421 40.2108 73.1016 43.8198 75.4352C45.6116 76.5928 47.4417 77.6914 49.3101 78.7311C51.0448 79.7333 52.839 80.6277 54.6825 81.4093C57.1346 82.4007 61.3363 83.7863 63.5108 81.005C64.6638 79.5303 64.7215 77.5292 64.4611 75.8484C64.1463 73.8161 63.3526 71.9196 62.5706 70.0672C58.9331 61.4505 55.2531 52.8545 51.5942 44.2484C50.7402 42.2398 49.8608 40.2389 49.1514 38.163C48.4872 36.2195 47.9344 34.1703 47.9213 32.0536C47.9099 30.2047 48.3094 28.1183 49.7081 26.6942C50.8682 25.5132 52.4935 25.1223 54.024 25.1312C57.8132 25.1534 61.3735 27.0928 64.3165 29.1368C67.9729 31.6763 71.2023 34.7612 74.8446 37.3199C77.7856 39.3858 81.2442 41.258 84.9975 41.495C86.4365 41.5858 87.9637 41.3929 89.2747 40.6023C90.5279 39.8113 91.4407 38.5766 91.8327 37.142C92.3241 35.4791 92.2628 33.7226 92.0021 32.0835C91.6763 30.1642 91.0852 28.3001 90.246 26.5453C88.4715 22.7327 86.0467 19.3161 83.9586 15.6975C82.9345 13.9229 81.9344 12.094 81.2962 10.1146C80.7555 8.43772 80.3156 6.45295 80.8498 4.63481C81.952 0.88357 86.4332 2.29512 88.7053 3.37797C90.2446 4.13837 91.7285 5.00728 93.1458 5.97818C93.4511 6.18103 93.748 5.64292 93.4441 5.44103C91.9561 4.41676 90.3914 3.50989 88.7641 2.72855C87.3791 2.09126 85.8542 1.53535 84.2652 1.5659C82.9307 1.59156 81.5856 2.15364 80.8023 3.35417C79.8756 4.7746 79.9394 6.61103 80.1889 8.13495C80.5187 10.1502 81.3062 12.0118 82.2142 13.7831C83.1705 15.6487 84.2616 17.4324 85.3592 19.2081C87.5526 22.7565 89.9556 26.3462 91.0495 30.4888C91.8147 33.3866 92.2982 37.9127 89.1834 39.9808C87.8008 40.8988 86.1065 41.0316 84.5766 40.8587C82.7276 40.6497 80.9664 40.0318 79.3217 39.2556C71.6521 35.6362 66.5429 28.121 58.3664 25.3417C55.5863 24.3968 51.6959 23.7934 49.2495 26.3487C47.9786 27.6762 47.4688 29.5191 47.3544 31.2509C47.2172 33.325 47.6478 35.3662 48.2331 37.2871C48.8823 39.3001 49.6374 41.277 50.4954 43.2093C51.412 45.3689 52.3299 47.5278 53.2489 49.6861L58.8203 62.7904L61.5885 69.3013C62.4333 71.2885 63.3389 73.2853 63.7792 75.4396C64.1398 77.2035 64.2421 79.6306 62.6969 81.0496C61.4698 82.1765 59.6768 82.1243 58.2403 81.8626C56.3802 81.5238 54.6302 80.7831 52.9647 79.966C51.0436 79.0236 49.1735 77.9781 47.3374 76.8907C43.5582 74.6488 39.9305 72.1582 36.4781 69.4351C33.0123 66.7053 29.7233 63.756 26.6311 60.605C25.0681 59.0122 23.5577 57.3686 22.1 55.6742C20.5978 53.9272 19.1871 52.0976 17.6313 50.3989C16.224 48.8624 14.6833 47.4381 12.8922 46.3545C11.3967 45.4496 9.62876 44.693 7.78944 44.7526C7.14064 44.7708 6.50292 44.9262 5.91775 45.2085C5.33258 45.4908 4.81306 45.8938 4.39295 46.3913C3.56978 47.4203 3.12498 48.7035 3.13367 50.0241C3.14315 51.5145 3.60056 52.9673 4.44588 54.1917C4.65038 54.4969 5.16901 54.1703 4.96361 53.8638V53.8638Z" fill="#E6E6E6"/>
<path d="M28.4097 4.14984H3.85211V26.0739H28.4097V4.14984Z" fill="#E6E6E6"/>
<path d="M28.4097 43.6131H3.85211V65.5371H28.4097V43.6131Z" fill="#90D633"/>
<path d="M107.317 4.14984H82.7598V26.0739H107.317V4.14984Z" fill="#90D633"/>
<path d="M107.317 43.6131H82.7598V65.5371H107.317V43.6131Z" fill="#E6E6E6"/>
<path d="M68.1423 4.14984H43.5847V26.0739H68.1423V4.14984Z" fill="#90D633"/>
<path d="M68.1423 43.6131H43.5847V65.5371H68.1423V43.6131Z" fill="#90D633"/>
<path d="M43.6554 8.24314C45.9192 8.24314 47.7545 6.39785 47.7545 4.12157C47.7545 1.84529 45.9192 0 43.6554 0C41.3915 0 39.5563 1.84529 39.5563 4.12157C39.5563 6.39785 41.3915 8.24314 43.6554 8.24314Z" fill="#3F3D56"/>
<path d="M83.2117 8.24314C85.4756 8.24314 87.3108 6.39785 87.3108 4.12157C87.3108 1.84529 85.4756 0 83.2117 0C80.9478 0 79.1126 1.84529 79.1126 4.12157C79.1126 6.39785 80.9478 8.24314 83.2117 8.24314Z" fill="#3F3D56"/>
<path d="M4.0991 47.8102C6.36297 47.8102 8.1982 45.9649 8.1982 43.6886C8.1982 41.4124 6.36297 39.5671 4.0991 39.5671C1.83523 39.5671 0 41.4124 0 43.6886C0 45.9649 1.83523 47.8102 4.0991 47.8102Z" fill="#3F3D56"/>
<path d="M43.6554 47.8102C45.9192 47.8102 47.7545 45.9649 47.7545 43.6886C47.7545 41.4124 45.9192 39.5671 43.6554 39.5671C41.3915 39.5671 39.5563 41.4124 39.5563 43.6886C39.5563 45.9649 41.3915 47.8102 43.6554 47.8102Z" fill="#3F3D56"/>
<path d="M139.226 131.3C139.226 131.3 133.497 131.744 134.085 133.811C134.672 135.879 139.226 135.584 139.226 135.584C139.226 135.584 142.751 135.288 144.661 135.879C146.571 136.47 148.774 135.879 148.921 134.845C149.068 133.811 147.893 133.073 147.893 133.073L147.158 131.596L139.226 131.3Z" fill="#2F2E41"/>
<path d="M124.169 85.1443L123.582 87.5075C123.582 87.5075 120.938 92.9724 124.169 92.9724C127.401 92.9724 126.226 87.9506 126.226 87.9506L126.52 85.5874L124.169 85.1443Z" fill="#9F616A"/>
<path d="M152.52 83.2242L153.107 85.5874C153.107 85.5874 155.752 91.0523 152.52 91.0523C149.288 91.0523 150.463 86.0305 150.463 86.0305L150.17 83.6673L152.52 83.2242Z" fill="#9F616A"/>
<path d="M137.243 43.0499C140.731 43.0499 143.559 40.2065 143.559 36.6989C143.559 33.1913 140.731 30.3478 137.243 30.3478C133.754 30.3478 130.927 33.1913 130.927 36.6989C130.927 40.2065 133.754 43.0499 137.243 43.0499Z" fill="#9F616A"/>
<path d="M135.333 41.573C135.333 41.573 136.068 44.97 135.627 46.5947C135.186 48.2194 144.734 46.2993 144.734 46.2993C144.734 46.2993 141.356 40.6868 141.503 40.5391L135.333 41.573Z" fill="#9F616A"/>
<path d="M136.802 45.4131C136.802 45.4131 134.158 44.6746 133.277 45.5608C132.395 46.447 127.254 48.9579 127.254 48.9579L130.779 70.6697L146.056 67.2727L148.701 46.7424C148.701 46.7424 144.535 44.2864 143.827 44.7759C143.119 45.2654 136.802 45.4131 136.802 45.4131Z" fill="#D0CDE1"/>
<path d="M128.429 49.1057L127.724 48.7255C127.724 48.7255 125.051 49.2534 125.198 51.3211C125.344 53.3889 125.932 64.9095 125.932 64.9095L123.582 85.7351L127.842 86.4736L132.102 69.0451L128.429 49.1057Z" fill="#D0CDE1"/>
<path d="M148.26 47.1856L148.965 46.8054C148.965 46.8054 151.639 47.3333 151.492 49.401C151.345 51.4688 150.757 62.9894 150.757 62.9894L153.107 83.815L148.848 84.5535L144.588 67.125L148.26 47.1856Z" fill="#D0CDE1"/>
<path d="M130.926 68.4543L130.339 77.4639L128.429 95.4833L131.22 132.851L140.915 133.147L137.977 97.5511L140.915 85.292L150.518 84.9344C150.518 84.9344 151.198 70.8175 145.763 66.3865L130.926 68.4543Z" fill="#2F2E41"/>
<path d="M141.503 83.2241L139.96 115.792L139.446 132.26L148.113 133.147L150.3 84.7147L146.938 81.3041L141.503 83.2241Z" fill="#2F2E41"/>
<path d="M140.034 28.28C140.034 28.28 134.305 27.5415 132.689 30.3478C132.689 30.3478 132.249 32.4156 130.78 33.1541C129.311 33.8926 131.073 36.4035 131.514 37.142C131.955 37.8805 133.13 42.1638 131.808 43.1977C130.486 44.2316 134.158 47.1856 134.158 47.1856C134.158 47.1856 135.921 49.5487 134.452 51.3211C132.983 53.0935 136.362 53.6843 136.362 53.6843C136.362 53.6843 135.627 58.7061 136.949 57.3768C136.949 57.3768 137.537 68.7497 143.119 61.6601C148.701 54.5705 151.051 51.1734 148.701 48.3671C146.35 45.5609 148.113 43.05 148.113 43.05C148.113 43.05 148.848 41.573 147.232 39.3575C145.616 37.142 145.616 28.28 140.034 28.28Z" fill="#2F2E41"/>
<path d="M131.734 132.187C131.734 132.187 126.005 132.63 126.593 134.698C127.181 136.765 131.734 136.47 131.734 136.47C131.734 136.47 135.26 136.175 137.169 136.765C139.079 137.356 141.282 136.765 141.429 135.731C141.576 134.698 140.401 133.959 140.401 133.959L139.667 132.482L131.734 132.187Z" fill="#2F2E41"/>
</svg>
